X: 1
T:The Lads of Kilmarnock
M:C
L:1/8
Q:80
C:Trad.
S:Strathspey
K:HP
|: {ag}a|
{AGAG}A2{gcd}c/2{e}A3/2{gcd}c/2e3/2{ag}a3/2f/2|
{gef}e3/2A/2{gcd}c/2{e}A3/2{GdGcG}B2{g}d/2c/2B|  !
{gAGAG}A2{gcd}c/2{e}A3/2{gcd}c/2e3/2{ag}a3/2f/2|
{gef}e3/2c/2{GdGcG}B2{gcd}c/2{e}A3/2{GAG}A/2:| [|
e/2|  !
{ag}a2{GdG}a3/2e/2{gfg}f3/2e/2{ag}a3/2f/2|
{gef}e3/2A/2{gcd}c/2{e}A3/2{GdGcG}B2{g}d/2c/2B|
{ag}a2{GdG}a3/2e/2{gfg}f3/2e/2{ag}a3/2f/2|  !
{gef}e3/2c/2{GdGcG}B2{gcd}c/2{e}A3/2{GAG}A3/2e/2|
{ag}a2{GdG}a3/2e/2{gfg}f3/2e/2{ag}a3/2f/2|
{gef}e3/2A/2{gcd}c/2{e}A3/2{GdGcG}B2{g}d/2c/2B|  !
{g}A/2B/2c{g}B/2c/2d{g}c/2d/2e{ag}a3/2f/2|
{gef}e3/2c/2{GdGcG}B2{gcd}c/2{e}A3/2{GAG}A/2|]
